X:1
T:[ID 5-41]
T:[ID 5-41]
T:Bezeichnung standardisiert: Tantz Tantz In dieser Quelle auch als: Angeloise
T:Urheber unbekannt Datum in der hier transkribierten schriftlichen Quelle: 1776 - 1791
C:Urheber unbekannt
C:Datum in der hier transkribierten schriftlichen Quelle: 1776 - 1791
L:1/8
M:2/4
K:G
V:1 treble 
V:1
 GBAc | Bd d2 | BA/G/ FG | A/G/F/E/ D2 | GBAc | Bg g2 | ad e/d/^c/B/ | d2 D2 :: BdBd | gb b2 | %10
 AcAc | fa a2 | GBAc | Bdgb | a/g/f/e/ d/c/B/A/ | G2 G2 :| %16

